shanghaipublictransportcardcompany.svg

<svg viewBox="0 0 24 24
" version="1.1" xmlns="http://www.w3.org/2000/svg" xmlns:xlink="http://www.w3.org/1999/xlink">
    <title>Shanghai Public Transport Card Company</title>
        <path d="M20.7329719,2.64585329 C20.7335434,3.45453513 20.033143,4.20193864 18.8957384,4.60638122 C17.9902984,4.92834099 16.9174954,4.9940021 15.9437908,4.80336454 C16.0358217,5.00966343 16.083765,5.22701217 16.083765,5.45053844 C16.083765,5.70613185 16.0210791,5.95364813 15.9037261,6.18866349 C16.8505092,6.16089307 17.8090744,6.28645078 18.6596764,6.56360424 C20.2147811,7.07030735 21.1727651,8.00673332 21.1727651,9.02013955 C21.1727651,10.5867298 18.9224688,11.8567022 16.1465876,11.8567022 C14.938098,11.8567022 13.8292238,11.6160009 12.9622775,11.2149134 C13.1542966,11.5582248 13.2565404,11.9239064 13.2565404,12.3029079 C13.2565404,14.3447555 10.2889628,16 6.62827022,16 C6.11204596,16 5.60960507,15.9670836 5.12732585,15.9048084 L17.8429253,7.20346919 L11.8743426,5.54615509 L20.3924977,1.69365295 C20.6134879,1.98727257 20.7332083,2.31131967 20.7329719,2.64585329 Z M6.62827022,8.60581582 C8.16531955,8.60581582 9.58017363,8.89763327 10.7044672,9.38735801 L0.616124662,13.8616003 C0.220757403,13.3879555 0,12.8598114 0,12.3029079 C0,10.2610603 2.96757766,8.60581582 6.62827022,8.60581582 Z M18.8957384,0.68532536 C19.4806097,0.893296082 19.9499293,1.19195177 20.2678061,1.54299266 L7.03664857,6.18358418 L14.76439,7.58592962 L11.1301429,9.19782466 C11.1236759,9.13906835 11.1204102,9.07981918 11.1204102,9.02013955 C11.1204102,8.74478828 11.1911339,8.47512012 11.3253428,8.21821076 C11.2374805,8.22204516 11.1478128,8.22335662 11.05759,8.22335662 C8.28171017,8.22335662 6.03141497,6.98192364 6.03141497,5.45053844 C6.03141497,3.91915324 8.28171017,2.67772025 11.05759,2.67772025 C11.9159158,2.67772025 12.7239906,2.7964136 13.4308259,3.00567128 C13.3979786,2.88851034 13.3821042,2.76787945 13.3821904,2.64585329 C13.381619,1.83717145 14.0820193,1.08976795 15.2194239,0.68532536 C16.3568285,0.280882775 17.7583338,0.280882775 18.8957384,0.68532536 Z M23.1677745,0.14099466 C23.6830221,0.32898754 24.0002905,0.676393281 23.9999998,1.05227289 C24.0002905,1.4281525 23.6830221,1.77555824 23.1677745,1.96355112 C22.6525269,2.151544 22.0176316,2.151544 21.5023839,1.96355112 C21.2015626,1.85379366 20.9682259,1.68969758 20.8261716,1.49732122 L22.3036542,0.829177285 L20.7497228,1.37410075 C20.6976173,1.2715426 20.6700729,1.16314647 20.6701586,1.05227289 C20.6698679,0.676393281 20.9871363,0.32898754 21.5023839,0.14099466 C22.0176316,-0.04699822 22.6525269,-0.04699822 23.1677745,0.14099466 Z" fill="#3D9846" fill-rule="nonzero"></path>
</svg>

<svg viewBox="0 0 24 24" xmlns="http://www.w3.org/2000/svg"><path d="M20.733 2.646c0 .809-.7 1.556-1.837 1.96-.906.322-1.979.388-2.952.197a1.579 1.579 0 0 1-.04 1.386 8.24 8.24 0 0 1 2.756.375c1.555.506 2.513 1.443 2.513 2.456 0 1.567-2.25 2.837-5.026 2.837-1.209 0-2.318-.241-3.185-.642.192.343.295.709.295 1.088 0 2.042-2.968 3.697-6.629 3.697-.516 0-1.018-.033-1.5-.095l12.715-8.702-5.969-1.657 8.518-3.852c.221.293.341.617.341.952ZM6.628 8.606c1.537 0 2.952.292 4.076.781L.616 13.862C.221 13.388 0 12.86 0 12.302c0-2.04 2.968-3.696 6.628-3.696ZM18.896.686c.585.207 1.054.506 1.372.857L7.037 6.183l7.727 1.403-3.634 1.612a1.722 1.722 0 0 1 .195-.98 6.163 6.163 0 0 1-.267.005c-2.776 0-5.027-1.241-5.027-2.772 0-1.532 2.25-2.773 5.027-2.773.858 0 1.666.118 2.373.328a1.326 1.326 0 0 1-.049-.36c0-.809.7-1.556 1.837-1.96 1.138-.405 2.54-.405 3.677 0ZM23.168.14c.515.188.832.535.832.911s-.317.724-.832.912a2.53 2.53 0 0 1-1.666 0c-.3-.11-.534-.274-.676-.467L22.304.83l-1.554.545a.705.705 0 0 1-.08-.322c0-.376.317-.723.832-.911a2.53 2.53 0 0 1 1.666 0Z" fill="#3D9846"/></svg>
